src/assets/tokens/sanFEI_EUR.svg

<svg width="148" height="82" viewBox="0 0 148 82" fill="none" xmlns="http://www.w3.org/2000/svg">
<path d="M107 81C129.091 81 147 63.0914 147 41C147 18.9086 129.091 1 107 1C84.9086 1 67 18.9086 67 41C67 63.0914 84.9086 81 107 81Z" fill="url(#paint0_linear_307_116)" stroke="black" stroke-width="0.5"/>
<path d="M80 33.8277L107 7L134 33.8277L120.751 46.9918L107.26 33.5862L107.017 33.3453L106.774 33.5862L93.2741 47L80 33.8277Z" fill="#FFF6F0" stroke="black"/>
<path d="M85.968 53.2H96.576V56.224H89.136V60.064H96.288V63.088H89.136V66.976H96.864V70H85.968V53.2ZM112.087 53.2V64.192C112.087 66.112 111.575 67.616 110.551 68.704C109.543 69.792 108.039 70.336 106.039 70.336C104.039 70.336 102.527 69.792 101.503 68.704C100.495 67.616 99.9913 66.112 99.9913 64.192V53.2H103.159V64.192C103.159 65.184 103.391 65.96 103.855 66.52C104.319 67.08 105.047 67.36 106.039 67.36C107.031 67.36 107.759 67.08 108.223 66.52C108.687 65.96 108.919 65.184 108.919 64.192V53.2H112.087ZM126.423 70H123.255V64.96C123.255 64.576 123.151 64.264 122.943 64.024C122.751 63.784 122.423 63.664 121.959 63.664H118.311V70H115.143V53.2H121.575C122.439 53.2 123.199 53.32 123.855 53.56C124.511 53.8 125.055 54.136 125.487 54.568C125.935 54.984 126.271 55.472 126.495 56.032C126.735 56.592 126.855 57.192 126.855 57.832V58.408C126.855 59.096 126.671 59.744 126.303 60.352C125.935 60.944 125.367 61.4 124.599 61.72V62.152C125.159 62.216 125.599 62.432 125.919 62.8C126.255 63.168 126.423 63.632 126.423 64.192V70ZM118.311 60.64H121.335C122.103 60.64 122.687 60.464 123.087 60.112C123.487 59.744 123.687 59.232 123.687 58.576V58.288C123.687 57.728 123.487 57.248 123.087 56.848C122.687 56.432 122.103 56.224 121.335 56.224H118.311V60.64Z" fill="#2A363A"/>
<path d="M40 81C62.0914 81 80 63.0914 80 41C80 18.9086 62.0914 1 40 1C17.9086 1 0 18.9086 0 41C0 63.0914 17.9086 81 40 81Z" fill="#22996E"/>
<path d="M39.9975 58.778H18.2197C15.1086 58.778 13.3308 55.6669 15.1086 53.0002L27.553 33.4446C28.4419 32.1113 29.7752 31.2224 31.553 31.2224H48.4419C50.2197 31.2224 51.553 32.1113 52.4419 33.4446L64.8864 53.0002C66.6641 55.6669 64.8864 58.778 61.7752 58.778H39.9975Z" fill="white"/>
<path d="M42.22 14.3331L47.5533 22.3331C48.4422 24.1109 47.5533 26.3331 45.3311 26.3331H34.6644C32.4422 26.3331 31.5533 24.1109 32.4422 22.3331L37.7755 14.3331C39.1089 12.5553 41.3311 12.5553 42.22 14.3331Z" fill="white"/>
<defs>
<linearGradient id="paint0_linear_307_116" x1="107" y1="1" x2="107" y2="81" gradientUnits="userSpaceOnUse">
<stop stop-color="#F4837D"/>
<stop offset="1" stop-color="#FDCEAA"/>
</linearGradient>
</defs>
</svg>

<svg width="148" height="82" fill="none" xmlns="http://www.w3.org/2000/svg"><path d="M107 81c22.091 0 40-17.909 40-40S129.091 1 107 1 67 18.909 67 41s17.909 40 40 40z" fill="url(#paint0_linear_307_116)" stroke="#000" stroke-width=".5"/><path d="M80 33.828L107 7l27 26.828-13.249 13.164-13.491-13.406-.243-.24-.243.24L93.274 47 80 33.828z" fill="#FFF6F0" stroke="#000"/><path d="M85.968 53.2h10.608v3.024h-7.44v3.84h7.152v3.024h-7.152v3.888h7.728V70H85.968V53.2zm26.119 0v10.992c0 1.92-.512 3.424-1.536 4.512-1.008 1.088-2.512 1.632-4.512 1.632-2 0-3.512-.544-4.536-1.632-1.008-1.088-1.512-2.592-1.512-4.512V53.2h3.168v10.992c0 .992.232 1.768.696 2.328.464.56 1.192.84 2.184.84.992 0 1.72-.28 2.184-.84.464-.56.696-1.336.696-2.328V53.2h3.168zM126.423 70h-3.168v-5.04c0-.384-.104-.696-.312-.936-.192-.24-.52-.36-.984-.36h-3.648V70h-3.168V53.2h6.432c.864 0 1.624.12 2.28.36.656.24 1.2.576 1.632 1.008.448.416.784.904 1.008 1.464.24.56.36 1.16.36 1.8v.576c0 .688-.184 1.336-.552 1.944-.368.592-.936 1.048-1.704 1.368v.432c.56.064 1 .28 1.32.648.336.368.504.832.504 1.392V70zm-8.112-9.36h3.024c.768 0 1.352-.176 1.752-.528.4-.368.6-.88.6-1.536v-.288c0-.56-.2-1.04-.6-1.44-.4-.416-.984-.624-1.752-.624h-3.024v4.416z" fill="#2A363A"/><path d="M40 81c22.091 0 40-17.909 40-40S62.091 1 40 1 0 18.909 0 41s17.909 40 40 40z" fill="#22996E"/><path d="M39.998 58.778H18.22c-3.111 0-4.89-3.111-3.111-5.778l12.444-19.555c.889-1.334 2.222-2.223 4-2.223h16.889c1.778 0 3.111.89 4 2.223L64.886 53c1.778 2.667 0 5.778-3.11 5.778H39.996zm2.222-44.445l5.333 8c.89 1.778 0 4-2.222 4H34.664c-2.222 0-3.11-2.222-2.222-4l5.334-8c1.333-1.778 3.555-1.778 4.444 0z" fill="#fff"/><defs><linearGradient id="paint0_linear_307_116" x1="107" y1="1" x2="107" y2="81" gradientUnits="userSpaceOnUse"><stop stop-color="#F4837D"/><stop offset="1" stop-color="#FDCEAA"/></linearGradient></defs></svg>
